Numix-GalliumOS/22/panel/y-ppa-indicator.svg

<?xml version="1.0" encoding="UTF-8" standalone="no"?>
<svg
   xmlns:dc="http://purl.org/dc/elements/1.1/"
   xmlns:cc="http://creativecommons.org/ns#"
   xmlns:rdf="http://www.w3.org/1999/02/22-rdf-syntax-ns#"
   xmlns:svg="http://www.w3.org/2000/svg"
   xmlns="http://www.w3.org/2000/svg"
   xmlns:sodipodi="http://sodipodi.sourceforge.net/DTD/sodipodi-0.dtd"
   xmlns:inkscape="http://www.inkscape.org/namespaces/inkscape"
   width="22"
   viewBox="0 0 6.208889 6.208889"
   height="22"
   id="svg2"
   version="1.1"
   inkscape:version="0.91 r"
   sodipodi:docname="y-ppa-indicator.svg">
  <metadata
     id="metadata12">
    <rdf:RDF>
      <cc:Work
         rdf:about="">
        <dc:format>image/svg+xml</dc:format>
        <dc:type
           rdf:resource="http://purl.org/dc/dcmitype/StillImage" />
        <dc:title />
      </cc:Work>
    </rdf:RDF>
  </metadata>
  <sodipodi:namedview
     pagecolor="#ffffff"
     bordercolor="#666666"
     borderopacity="1"
     objecttolerance="10"
     gridtolerance="10"
     guidetolerance="10"
     inkscape:pageopacity="0"
     inkscape:pageshadow="2"
     inkscape:window-width="1280"
     inkscape:window-height="998"
     id="namedview10"
     showgrid="true"
     inkscape:zoom="14.877527"
     inkscape:cx="4.9156882"
     inkscape:cy="17.437298"
     inkscape:window-x="0"
     inkscape:window-y="0"
     inkscape:window-maximized="1"
     inkscape:current-layer="svg2">
    <inkscape:grid
       type="xygrid"
       id="grid3815" />
  </sodipodi:namedview>
  <defs
     id="defs4" />
  <path
     style="fill:#ececec;fill-opacity:1;stroke:none"
     d="M 6.53125 3 C 4.5682579 3 3 4.5682579 3 6.53125 L 3 15.46875 C 3 17.431742 4.5682579 19 6.53125 19 L 15.46875 19 C 17.431742 19 19 17.431742 19 15.46875 L 19 6.53125 C 19 4.5682579 17.431742 3 15.46875 3 L 6.53125 3 z M 5 5 L 10 5 L 10 5.46875 C 9.870772 5.4808327 9.789458 5.4687667 9.625 5.46875 C 9.0846141 5.5050157 8.6874961 5.5728955 8.6875 5.875 C 8.6874961 6.140872 8.7690421 6.3903996 8.96875 6.65625 L 11.46875 10.53125 L 14.125 6.625 C 14.301202 6.3470651 14.37499 6.0946106 14.375 5.9375 C 14.37499 5.707904 14.18795 5.5533535 14 5.46875 L 13 5.46875 L 13 5 L 17 5 L 17 5.46875 C 16.553587 5.5050157 16.172666 5.5345658 15.84375 5.8125 C 15.526558 6.0783717 15.091124 6.6086771 14.5625 7.40625 L 12 11.46875 L 12 16 C 12.211443 16.193355 13.212914 16.519165 14 16.53125 L 14 17 L 8 17 L 8 16.53125 C 8.7988209 16.494995 9.8120361 16.193353 10 16 L 10 11.4375 L 7.875 8.1875 C 6.9586983 6.8823742 6.3561842 6.1025413 6.0625 5.8125 C 5.7688134 5.5224814 5.4615384 5.46875 5 5.46875 L 5 5 z "
     transform="scale(0.28222223,0.28222223)"
     id="rect3813" />
</svg>

<svg xmlns="http://www.w3.org/2000/svg" width="22" viewBox="0 0 6.208889 6.208889" height="22">
 <path d="m 6.531 3 c -1.963 0 -3.531 1.568 -3.531 3.531 l 0 8.938 c 0 1.963 1.568 3.531 3.531 3.531 l 8.938 0 c 1.963 0 3.531 -1.568 3.531 -3.531 l 0 -8.938 c 0 -1.963 -1.568 -3.531 -3.531 -3.531 l -8.938 0 z m -1.531 2 l 5 0 l 0 0.469 c -0.129 0.012 -0.211 0 -0.375 0 c -0.54 0.036 -0.938 0.104 -0.938 0.406 c 0 0.266 0.082 0.515 0.281 0.781 l 2.5 3.875 l 2.656 -3.906 c 0.176 -0.278 0.25 -0.53 0.25 -0.688 c 0 -0.23 -0.187 -0.384 -0.375 -0.469 l -1 0 l 0 -0.469 l 4 0 l 0 0.469 c -0.446 0.036 -0.827 0.066 -1.156 0.344 c -0.317 0.266 -0.753 0.796 -1.281 1.594 l -2.563 4.063 l 0 4.531 c 0.211 0.193 1.213 0.519 2 0.531 l 0 0.469 l -6 0 l 0 -0.469 c 0.799 -0.036 1.812 -0.338 2 -0.531 l 0 -4.563 l -2.125 -3.25 c -0.916 -1.305 -1.519 -2.085 -1.813 -2.375 c -0.294 -0.29 -0.601 -0.344 -1.063 -0.344 l 0 -0.469 z" transform="scale(0.28222223,0.28222223)" style="fill:#ececec;fill-opacity:1;stroke:none"/>
</svg>
